theme/images/module-icons/richtext.svg

<svg viewBox="0 0 32 32" xmlns="http://www.w3.org/2000/svg"><path d="m29.38 22.18h-26.76c-.41 0-.75.34-.75.75s.34.75.75.75h26.76c.41 0 .75-.34.75-.75s-.34-.75-.75-.75z"/><path d="m29.38 17.56h-26.76c-.41 0-.75.34-.75.75s.34.75.75.75h26.76c.41 0 .75-.34.75-.75s-.34-.75-.75-.75z"/><path d="m20.04 26.8h-17.42c-.41 0-.75.34-.75.75s.34.75.75.75h17.42c.41 0 .75-.34.75-.75s-.34-.75-.75-.75z"/><path d="m29.38 8.32h-26.76c-.41 0-.75.34-.75.75s.34.75.75.75h26.76c.41 0 .75-.34.75-.75s-.34-.75-.75-.75z"/><path d="m29.38 12.94h-26.76c-.41 0-.75.34-.75.75s.34.75.75.75h26.76c.41 0 .75-.34.75-.75s-.34-.75-.75-.75z"/><path d="m2.62 5.2h26.76c.41 0 .75-.34.75-.75s-.34-.75-.75-.75h-26.76c-.41 0-.75.34-.75.75s.34.75.75.75z"/></svg>

<?xml version="1.0" encoding="UTF-8"?><svg id="Lager_1" xmlns="http://www.w3.org/2000/svg" viewBox="0 0 32 32"><path d="M29.38,22.18H2.62c-.41,0-.75,.34-.75,.75s.34,.75,.75,.75H29.38c.41,0,.75-.34,.75-.75s-.34-.75-.75-.75Z"/><path d="M29.38,17.56H2.62c-.41,0-.75,.34-.75,.75s.34,.75,.75,.75H29.38c.41,0,.75-.34,.75-.75s-.34-.75-.75-.75Z"/><path d="M20.04,26.8H2.62c-.41,0-.75,.34-.75,.75s.34,.75,.75,.75H20.04c.41,0,.75-.34,.75-.75s-.34-.75-.75-.75Z"/><path d="M29.38,8.32H2.62c-.41,0-.75,.34-.75,.75s.34,.75,.75,.75H29.38c.41,0,.75-.34,.75-.75s-.34-.75-.75-.75Z"/><path d="M29.38,12.94H2.62c-.41,0-.75,.34-.75,.75s.34,.75,.75,.75H29.38c.41,0,.75-.34,.75-.75s-.34-.75-.75-.75Z"/><path d="M2.62,5.2H29.38c.41,0,.75-.34,.75-.75s-.34-.75-.75-.75H2.62c-.41,0-.75,.34-.75,.75s.34,.75,.75,.75Z"/></svg>
